img/icons/icon.svg

<svg viewBox="0 0 493 464" xmlns="http://www.w3.org/2000/svg" xml:space="preserve" style="fill-rule:evenodd;clip-rule:evenodd;stroke-linejoin:round;stroke-miterlimit:2"><style>path{fill:#000;} @media (prefers-color-scheme: dark) {path { fill: #fff; }}</style>
	<path d="M289.994 30.942A6026.735 6026.735 0 0 1 360.5 28c92.491-2.479 184.825-4.979 277-7.5 158.066.46 316.066 3.96 474 10.5 49.71 2.218 99.38 5.218 149 9 27.39 3.041 52.06 12.708 74 29 19.17 16.836 30 38.003 32.5 63.5 1.86 227.437-12.81 453.77-44 679-13.08 59.09-49.58 92.257-109.5 99.5-25.44.049-50.88.095-76.32.137l-1.74 31.941c0 3.499-.57 6.398-3.92 6.917-.35.055-2.71.083-3.08.083h-74.23c-3.86 0-7-3.134-7-7l-1.72-31.805c-224.175.294-448.345.303-672.516.026l-1.726 31.779c0 3.499-.567 6.398-3.92 6.917-.352.055-2.713.083-3.08.083h-74.227a7 7 0 0 1-7-7l-1.733-31.907c-32.263-.051-64.525-.108-96.788-.171-54.485-8.512-89.318-39.345-104.5-92.5-32.636-230.51-47.303-462.177-44-695C43.826 88.668 64.326 64.501 97.5 51a162.675 162.675 0 0 1 42-11c2.75-.2 5.501-.398 8.252-.595-.004-.19-.006-.38-.006-.571V11.796l2.607-12.868 7.069-10.493 10.494-7.07 12.868-2.607h14.81l369.275-246.576c.394-19.34 16.218-34.92 35.651-34.92 19.681 0 35.659 15.978 35.659 35.659 0 19.681-15.978 35.659-35.659 35.659-.438 0-.875-.008-1.309-.024L275.455-15.241h-.593l5.456 3.676 7.069 10.493 2.607 12.868v19.146zm-65.211-52.184h30.471l324.611-216.774a35.86 35.86 0 0 1-11.13-12.894L224.783-21.242zm38.197 53.531V11.796a6.024 6.024 0 0 0-6.024-6.024h-76.172a6.024 6.024 0 0 0-6.024 6.024v25.742a6016.505 6016.505 0 0 1 88.22-5.249zM601.5 57.5a15458.926 15458.926 0 0 0-463 13.5c-49.74 8.066-74.573 37.233-74.5 87.5-3.487 211.171 7.846 421.504 34 631 3.232 17.029 9.232 33.029 18 48 15.753 26.967 38.919 43.8 69.5 50.5 342.667.667 685.333.667 1028 0 13.16-1.942 25.49-6.275 37-13 26.92-19.635 44.42-45.802 52.5-78.5 28.24-218.421 39.57-437.754 34-658-1.88-13.649-6.88-25.983-15-37-16.01-17.425-35.85-27.591-59.5-30.5a14345.203 14345.203 0 0 0-661-13.5z" fill="currentColor" transform="translate(-13.158 112.064) scale(.37017)" />
	<path d="M580.5 79.5a15582.75 15582.75 0 0 1 671 12.5c24.87 2.883 42.37 15.716 52.5 38.5a129.333 129.333 0 0 1 6 29 4405.329 4405.329 0 0 1-20 504 2758.632 2758.632 0 0 1-14 113c-7.31 31.504-24.14 56.337-50.5 74.5a108.996 108.996 0 0 1-33 12c-328.667.667-657.333.667-986 0-30.521-6.501-53.354-23.334-68.5-50.5a188.647 188.647 0 0 1-14-34C100.672 599.461 89.505 419.628 90.5 239l.5-82.5c2.47-35.459 20.97-56.96 55.5-64.5a19661.73 19661.73 0 0 1 434-12.5zM444.894 769.726a5.662 5.662 0 0 0-5.661-5.662h-71.592a5.662 5.662 0 0 0-5.662 5.662v39.51c0-.448 83.232.317 82.915 0v-39.51zm493.963 0a5.662 5.662 0 0 0-5.662-5.662h-71.591a5.662 5.662 0 0 0-5.662 5.662v39.51c0-.448 83.232.317 82.915 0v-39.51zm-394.166 0a5.661 5.661 0 0 0-5.661-5.662h-71.592a5.662 5.662 0 0 0-5.662 5.662v39.51c0-.448 83.232.317 82.915 0v-39.51zm198.61 0a5.662 5.662 0 0 0-5.662-5.662h-71.592a5.662 5.662 0 0 0-5.662 5.662v39.51c0-.448 83.232.317 82.916 0v-39.51zM1065.5 577.5c-243-1.333-486-1.333-729 0 9.411 8.796 17.411 18.796 24 30 227 1.333 454 1.333 681 0a172.873 172.873 0 0 1 24-30zm56.63 19.526c-41.81 0-75.76 33.948-75.76 75.763 0 41.814 33.95 75.762 75.76 75.762 41.82 0 75.76-33.948 75.76-75.762 0-41.815-33.94-75.763-75.76-75.763zm0 37.821c20.94 0 37.94 17.001 37.94 37.942 0 20.94-17 37.942-37.94 37.942-20.94 0-37.94-17.002-37.94-37.942 0-20.941 17-37.942 37.94-37.942zM1038.5 739.5a240.602 240.602 0 0 1-12-30.5c-217-.667-434-.667-651 0a154.019 154.019 0 0 1-12 30.5c225 1.333 450 1.333 675 0zm-671-118c4.703 9.441 8.036 19.441 10 30 215.999 1 431.999 1.333 648 1 1.06-11.067 4.06-21.567 9-31.5-222.5-.833-444.834-.666-667 .5zm671.67 148.226a5.658 5.658 0 0 0-5.66-5.662h-71.589a5.662 5.662 0 0 0-5.662 5.662v39.51c0-.448 83.231.317 82.911 0v-39.51zm-393.123 0a5.662 5.662 0 0 0-5.662-5.662h-71.592a5.662 5.662 0 0 0-5.662 5.662v39.51c0-.448 83.232.317 82.916 0v-39.51zm195.032 0a5.662 5.662 0 0 0-5.662-5.662h-71.592a5.662 5.662 0 0 0-5.661 5.662v39.51c0-.448 83.232.317 82.915 0v-39.51zM1249.5 556.5a3711.207 3711.207 0 0 0 27.5-418c-3.44-8.827-9.94-13.993-19.5-15.5-83.95-4.389-167.95-7.723-252-10a11336.58 11336.58 0 0 0-863 10c-8.988 1.657-14.821 6.823-17.5 15.5a3690 3690 0 0 0 27.5 418h1097zm-967.379 40.526c-41.814 0-75.762 33.948-75.762 75.763 0 41.814 33.948 75.762 75.762 75.762 41.815 0 75.763-33.948 75.763-75.762 0-41.815-33.948-75.763-75.763-75.763zm0 37.821c20.941 0 37.943 17.001 37.943 37.942 0 20.94-17.002 37.942-37.943 37.942-20.94 0-37.942-17.002-37.942-37.942 0-20.941 17.002-37.942 37.942-37.942zM1022.5 664.5h-643c.323 6.522-.01 12.855-1 19-.086 4.357-.42 8.69-1 13h646a467.821 467.821 0 0 1-1-32z" fill="currentColor" transform="translate(-13.158 112.064) scale(.37017)" />
	<path d="M632.5 129.5c.722.418 1.222 1.084 1.5 2a842.25 842.25 0 0 1 7 44c.667 104.667.667 209.333 0 314a4162.642 4162.642 0 0 0-7 48 1650.147 1650.147 0 0 1-7-46c-.667-105-.667-210 0-315a879.293 879.293 0 0 0 5.5-47zM679.5 536.5l-2-1a448.466 448.466 0 0 0-5.5-38 26393.304 26393.304 0 0 1 0-325 2847.65 2847.65 0 0 1 6-43 302.247 302.247 0 0 1 7 44c.667 107.667.667 215.333 0 323l-5.5 40zM498.5 131.5c3.74 14.655 6.24 29.655 7.5 45 .667 105.333.667 210.667 0 316a1254.518 1254.518 0 0 1-6 44 339.123 339.123 0 0 1-7-48 24480.26 24480.26 0 0 1 0-313 383.59 383.59 0 0 0 5.5-44zM543.5 132.5c3.557 14.677 6.057 29.677 7.5 45 .667 105.333.667 210.667 0 316a2470.876 2470.876 0 0 1-6 44 1656.248 1656.248 0 0 1-7-46 25109.945 25109.945 0 0 1 0-317 2626.128 2626.128 0 0 0 5.5-42zM587.5 130.5c1.193.47 1.86 1.47 2 3a463.092 463.092 0 0 1 6.5 45c.667 103.667.667 207.333 0 311a430.24 430.24 0 0 1-6.5 45l-6.5-39a26069.466 26069.466 0 0 1 0-323 238.465 238.465 0 0 0 4.5-42zM722.5 132.5c3.774 14.646 6.274 29.646 7.5 45 .667 106.667.667 213.333 0 320a1130.265 1130.265 0 0 1-6 42 463.067 463.067 0 0 1-7-47c-.667-105-.667-210 0-315a778.467 778.467 0 0 0 5.5-45zM363.5 134.5c3.557 14.004 6.057 28.337 7.5 43 .667 105.667.667 211.333 0 317a1968.44 1968.44 0 0 1-6 39 1942.47 1942.47 0 0 1-7-43 24480.26 24480.26 0 0 1 0-313 712.53 712.53 0 0 0 5.5-43zM453.5 133.5c3.558 14.007 6.058 28.34 7.5 43 .667 104 .667 208 0 312a822.832 822.832 0 0 1-7 46 1785.955 1785.955 0 0 1-7-48 24013.244 24013.244 0 0 1 0-310 1981.977 1981.977 0 0 1 6.5-43zM767.5 134.5c1.575 4.43 2.742 9.097 3.5 14a2458.808 2458.808 0 0 0 4 31c.667 104.667.667 209.333 0 314a1138.3 1138.3 0 0 1-6 45 258.043 258.043 0 0 1-7-42c-.667-106-.667-212 0-318a2945.49 2945.49 0 0 0 5.5-44zM901.5 134.5c.722.418 1.222 1.084 1.5 2a585.118 585.118 0 0 1 6 41c.667 106.333.667 212.667 0 319a1310.295 1310.295 0 0 1-6.5 41 831.76 831.76 0 0 1-6.5-40c-.667-107-.667-214 0-321a1506.345 1506.345 0 0 0 5.5-42zM811.5 134.5c1.901 2.843 3.067 6.176 3.5 10a1164.043 1164.043 0 0 1 5 37c.667 103.333.667 206.667 0 310a474.893 474.893 0 0 1-6.5 44 2256.703 2256.703 0 0 1-6.5-38 25587.457 25587.457 0 0 1 0-320 188.254 188.254 0 0 1 4-27c.499-5.323.666-10.656.5-16zM856.5 133.5c.617.111 1.117.444 1.5 1a374.685 374.685 0 0 1 6 45c.667 104.667.667 209.333 0 314l-6 46c-2.326-14.627-4.66-29.294-7-44-.667-106-.667-212 0-318a993.196 993.196 0 0 0 5.5-44zM318.5 135.5c3.898 14.632 6.732 29.632 8.5 45 .667 103.333.667 206.667 0 310a665.832 665.832 0 0 1-7 44 1524.118 1524.118 0 0 1-7-41 24480.26 24480.26 0 0 1 0-313 7146.393 7146.393 0 0 0 5.5-45zM946.5 134.5c.617.111 1.117.444 1.5 1a447.553 447.553 0 0 1 7 48c.667 103 .667 206 0 309a371.445 371.445 0 0 1-7 43 531.642 531.642 0 0 1-7.5-49.5 48349.178 48349.178 0 0 0 1.5-308.5 122.665 122.665 0 0 1 4-26c.499-5.657.666-11.324.5-17zM991.5 135.5c3.665 12.974 6.165 26.308 7.5 40 .667 107 .667 214 0 321a478.4 478.4 0 0 1-6 41l-6-42a24636.932 24636.932 0 0 1 0-314 235.885 235.885 0 0 1 4-28c.499-5.991.666-11.991.5-18zM1036.5 137.5c3.56 13.337 6.06 27.003 7.5 41 .67 105.333.67 210.667 0 316a626.518 626.518 0 0 1-6 44 597.106 597.106 0 0 1-7-48c-.67-102.667-.67-205.333 0-308a777.338 777.338 0 0 0 5.5-45zM1081.5 138.5c3.77 14.648 6.27 29.648 7.5 45 .67 104.333.67 208.667 0 313-2.34 14.034-4.67 28.034-7 42a3675.857 3675.857 0 0 0-7-49c-.67-101.333-.67-202.667 0-304a2364.68 2364.68 0 0 1 6.5-47zM273.5 139.5c1.901 2.843 3.067 6.176 3.5 10a595.26 595.26 0 0 1 5 34c.667 102.667.667 205.333 0 308a1395.852 1395.852 0 0 1-7 45c-2.003-13.345-4.003-26.678-6-40a24951.774 24951.774 0 0 1 0-316 122.636 122.636 0 0 1 4-26c.499-4.989.666-9.989.5-15zM184.5 140.5c3.57 14.701 6.07 29.701 7.5 45 .667 101.333.667 202.667 0 304a1644.572 1644.572 0 0 0-7 46 823.619 823.619 0 0 1-7-46c-.667-101-.667-202 0-303a657.573 657.573 0 0 1 6.5-46zM229.5 140.5c3.558 14.679 6.058 29.679 7.5 45 .667 101.667.667 203.333 0 305a1050.54 1050.54 0 0 1-7 45 1240.375 1240.375 0 0 1-6-40c-.667-104-.667-208 0-312a1444.398 1444.398 0 0 1 5.5-43zM1125.5 140.5c1.62 1.089 2.45 2.756 2.5 5a372.73 372.73 0 0 1 6 41c.67 102 .67 204 0 306a1657.232 1657.232 0 0 1-7 46 601.367 601.367 0 0 1-7-48c-.67-101.667-.67-203.333 0-305a777.338 777.338 0 0 0 5.5-45zM1170.5 143.5c1.57 1.181 2.4 2.847 2.5 5a657.289 657.289 0 0 1 6 39c.67 101.667.67 203.333 0 305a1316.435 1316.435 0 0 1-7 45 510.542 510.542 0 0 1-7-44c-.67-102.667-.67-205.333 0-308 1.95-14.006 3.78-28.006 5.5-42zM1215.5 143.5c3.88 13.613 6.38 27.613 7.5 42 .67 105 .67 210 0 315a720.108 720.108 0 0 0-6 37 205.915 205.915 0 0 1-7-42c-.67-102.333-.67-204.667 0-307 1.84-15.013 3.67-30.013 5.5-45zM408.5 133.5c3.774 14.646 6.274 29.646 7.5 45 .667 104 .667 208 0 312a1054.301 1054.301 0 0 1-7 45l-7.5-51.5a48349.178 48349.178 0 0 0 1.5-308.5c1.838-14.012 3.671-28.012 5.5-42z" fill="currentColor" transform="translate(-13.158 112.064) scale(.37017)" />
	<path d="m677.5 535.5 2 1c-.746 4.979-1.412 4.646-2-1zM1065.5 577.5c-243-1.333-486-1.333-729 0-.789-.283-1.456-.783-2-1.5 244.333-.667 488.667-.667 733 0-.54.717-1.21 1.217-2 1.5zM1022.5 664.5h-643c.323 6.522-.01 12.855-1 19v-20c214.834-.333 429.501 0 644 1zM363.5 739.5c225 1.333 450 1.333 675 0 .54.06.88.393 1 1a57305.951 57305.951 0 0 1-677 0c.124-.607.457-.94 1-1z" fill="currentColor" transform="translate(-13.158 112.064) scale(.37017)" /></svg>

<?xml version="1.0" encoding="UTF-8" standalone="no"?>
<!DOCTYPE svg PUBLIC "-//W3C//DTD SVG 1.1//EN" "http://www.w3.org/Graphics/SVG/1.1/DTD/svg11.dtd">
<svg width="100%" height="100%" viewBox="0 0 493 464" version="1.1" xmlns="http://www.w3.org/2000/svg" xmlns:xlink="http://www.w3.org/1999/xlink" xml:space="preserve" xmlns:serif="http://www.serif.com/" style="fill-rule:evenodd;clip-rule:evenodd;stroke-linejoin:round;stroke-miterlimit:2;">
    <g transform="matrix(0.37017,0,0,0.37017,-13.158,112.064)">
        <path d="M289.994,30.942C313.49,29.824 336.992,28.843 360.5,28C452.991,25.521 545.325,23.021 637.5,20.5C795.566,20.96 953.566,24.46 1111.5,31C1161.21,33.218 1210.88,36.218 1260.5,40C1287.89,43.041 1312.56,52.708 1334.5,69C1353.67,85.836 1364.5,107.003 1367,132.5C1368.86,359.937 1354.19,586.27 1323,811.5C1309.92,870.59 1273.42,903.757 1213.5,911C1188.06,911.049 1162.62,911.095 1137.18,911.137L1135.44,943.078C1135.44,946.577 1134.87,949.476 1131.52,949.995C1131.17,950.05 1128.81,950.078 1128.44,950.078L1054.21,950.078C1050.35,950.078 1047.21,946.944 1047.21,943.078L1045.49,911.273C821.315,911.567 597.145,911.576 372.974,911.299L371.248,943.078C371.248,946.577 370.681,949.476 367.328,949.995C366.976,950.05 364.615,950.078 364.248,950.078L290.021,950.078C286.181,950.078 283.021,946.918 283.021,943.078L281.288,911.171C249.025,911.12 216.763,911.063 184.5,911C130.015,902.488 95.182,871.655 80,818.5C47.364,587.99 32.697,356.323 36,123.5C43.826,88.668 64.326,64.501 97.5,51C110.946,45.473 125.071,41.774 139.5,40C142.25,39.8 145.001,39.602 147.752,39.405C147.748,39.215 147.746,39.025 147.746,38.834L147.746,11.796L150.353,-1.072L157.422,-11.565L167.916,-18.635L180.784,-21.242L195.594,-21.242L564.869,-267.818C565.263,-287.158 581.087,-302.738 600.52,-302.738C620.201,-302.738 636.179,-286.76 636.179,-267.079C636.179,-247.398 620.201,-231.42 600.52,-231.42C600.082,-231.42 599.645,-231.428 599.211,-231.444L275.455,-15.241L274.862,-15.241L280.318,-11.565L287.387,-1.072L289.994,11.796L289.994,30.942ZM224.783,-21.242L255.254,-21.242L579.865,-238.016C575.174,-241.358 571.355,-245.781 568.735,-250.91L224.783,-21.242ZM262.98,32.289C262.98,32.289 262.98,11.796 262.98,11.796C262.98,8.491 260.261,5.772 256.956,5.772L180.784,5.772C177.479,5.772 174.76,8.491 174.76,11.796L174.76,37.538C204.153,35.572 233.561,33.823 262.98,32.289ZM601.5,57.5C447.108,59.687 292.757,64.188 138.5,71C88.76,79.066 63.927,108.233 64,158.5C60.513,369.671 71.846,580.004 98,789.5C101.232,806.529 107.232,822.529 116,837.5C131.753,864.467 154.919,881.3 185.5,888C528.167,888.667 870.833,888.667 1213.5,888C1226.66,886.058 1238.99,881.725 1250.5,875C1277.42,855.365 1294.92,829.198 1303,796.5C1331.24,578.079 1342.57,358.746 1337,138.5C1335.12,124.851 1330.12,112.517 1322,101.5C1305.99,84.075 1286.15,73.909 1262.5,71C1042.3,61.423 821.908,56.921 601.5,57.5Z" style="fill:rgb(222,43,154);"/>
    </g>
    <g transform="matrix(0.37017,0,0,0.37017,-13.158,112.064)">
        <path d="M580.5,79.5C804.23,78.849 1027.95,83.017 1251.5,92C1276.37,94.883 1293.87,107.716 1304,130.5C1307.1,139.905 1309.12,149.636 1310,159.5C1312.96,327.744 1306.29,496.02 1290,663.5C1286.11,701.259 1281.44,738.934 1276,776.5C1268.69,808.004 1251.86,832.837 1225.5,851C1215.22,856.757 1204.08,860.81 1192.5,863C863.833,863.667 535.167,863.667 206.5,863C175.979,856.499 153.146,839.666 138,812.5C132.237,801.65 127.548,790.262 124,778.5C100.672,599.461 89.505,419.628 90.5,239L91,156.5C93.47,121.041 111.97,99.54 146.5,92C291.116,86.236 435.792,82.069 580.5,79.5ZM444.894,769.726C444.894,766.62 442.339,764.065 439.233,764.064L367.641,764.064C364.535,764.064 361.979,766.62 361.979,769.726L361.979,809.236C361.979,808.788 445.211,809.553 444.894,809.236L444.894,769.726ZM938.857,769.726C938.857,766.62 936.301,764.064 933.195,764.064L861.604,764.064C858.498,764.064 855.942,766.62 855.942,769.726L855.942,809.236C855.942,808.788 939.174,809.553 938.857,809.236L938.857,769.726ZM544.691,769.726C544.691,769.726 544.691,769.725 544.691,769.725C544.691,766.619 542.136,764.064 539.03,764.064L467.438,764.064C464.332,764.064 461.776,766.62 461.776,769.726L461.776,809.236C461.776,808.788 545.008,809.553 544.691,809.236L544.691,769.726ZM743.301,769.726C743.301,766.62 740.745,764.064 737.639,764.064L666.047,764.064C662.941,764.064 660.385,766.62 660.385,769.726L660.385,809.236C660.385,808.788 743.617,809.553 743.301,809.236L743.301,769.726ZM1065.5,577.5C822.5,576.167 579.5,576.167 336.5,577.5C345.911,586.296 353.911,596.296 360.5,607.5C587.5,608.833 814.5,608.833 1041.5,607.5C1048.36,596.639 1056.41,586.577 1065.5,577.5ZM1122.13,597.026C1080.32,597.026 1046.37,630.974 1046.37,672.789C1046.37,714.603 1080.32,748.551 1122.13,748.551C1163.95,748.551 1197.89,714.603 1197.89,672.789C1197.89,630.974 1163.95,597.026 1122.13,597.026ZM1122.13,634.847C1143.07,634.847 1160.07,651.848 1160.07,672.789C1160.07,693.729 1143.07,710.731 1122.13,710.731C1101.19,710.731 1084.19,693.729 1084.19,672.789C1084.19,651.848 1101.19,634.847 1122.13,634.847ZM1038.5,739.5C1033.81,729.618 1029.8,719.428 1026.5,709C809.5,708.333 592.5,708.333 375.5,709C372.596,719.565 368.573,729.789 363.5,739.5C588.5,740.833 813.5,740.833 1038.5,739.5ZM367.5,621.5C372.203,630.941 375.536,640.941 377.5,651.5C593.499,652.5 809.499,652.833 1025.5,652.5C1026.56,641.433 1029.56,630.933 1034.5,621C812,620.167 589.666,620.334 367.5,621.5ZM1039.17,769.726C1039.17,769.725 1039.17,769.723 1039.17,769.722C1039.17,766.618 1036.62,764.064 1033.51,764.064C1033.51,764.064 1033.51,764.064 1033.51,764.064L961.921,764.064C958.815,764.064 956.259,766.62 956.259,769.726L956.259,809.236C956.259,808.788 1039.49,809.553 1039.17,809.236L1039.17,769.726ZM646.047,769.726C646.047,766.62 643.491,764.064 640.385,764.064L568.793,764.064C565.687,764.064 563.131,766.62 563.131,769.726L563.131,809.236C563.131,808.788 646.363,809.553 646.047,809.236L646.047,769.726ZM841.079,769.726C841.079,766.62 838.523,764.064 835.417,764.064L763.825,764.064C760.719,764.065 758.164,766.62 758.164,769.726L758.164,809.236C758.164,808.788 841.396,809.553 841.079,809.236L841.079,769.726ZM1249.5,556.5C1266.53,417.796 1275.71,278.24 1277,138.5C1273.56,129.673 1267.06,124.507 1257.5,123C1173.55,118.611 1089.55,115.277 1005.5,113C717.811,105.378 429.935,108.714 142.5,123C133.512,124.657 127.679,129.823 125,138.5C126.244,278.242 135.426,417.8 152.5,556.5L1249.5,556.5ZM282.121,597.026C240.307,597.026 206.359,630.974 206.359,672.789C206.359,714.603 240.307,748.551 282.121,748.551C323.936,748.551 357.884,714.603 357.884,672.789C357.884,630.974 323.936,597.026 282.121,597.026ZM282.121,634.847C303.062,634.847 320.064,651.848 320.064,672.789C320.064,693.729 303.062,710.731 282.121,710.731C261.181,710.731 244.179,693.729 244.179,672.789C244.179,651.848 261.181,634.847 282.121,634.847ZM1022.5,664.5L379.5,664.5C379.823,671.022 379.49,677.355 378.5,683.5C378.414,687.857 378.08,692.19 377.5,696.5L1023.5,696.5C1022.8,685.848 1022.47,675.175 1022.5,664.5Z" style="fill:rgb(222,43,154);"/>
    </g>
    <g transform="matrix(0.37017,0,0,0.37017,-13.158,112.064)">
        <path d="M632.5,129.5C633.222,129.918 633.722,130.584 634,131.5C636.721,146.102 639.055,160.774 641,175.5C641.667,280.167 641.667,384.833 641,489.5C638.573,505.486 636.24,521.487 634,537.5C631.451,522.2 629.117,506.865 627,491.5C626.333,386.5 626.333,281.5 627,176.5C629.255,160.886 631.089,145.213 632.5,129.5ZM679.5,536.5L677.5,535.5C676.21,522.761 674.375,510.082 672,497.5C671.333,389.168 671.333,280.832 672,172.5C673.891,158.152 675.891,143.818 678,129.5C681.413,143.974 683.752,158.681 685,173.5C685.667,281.167 685.667,388.833 685,496.5L679.5,536.5ZM498.5,131.5C502.24,146.155 504.74,161.155 506,176.5C506.667,281.833 506.667,387.167 506,492.5C504.26,507.201 502.259,521.87 500,536.5C496.524,520.688 494.185,504.647 493,488.5C492.333,384.168 492.333,279.832 493,175.5C495.68,160.952 497.517,146.26 498.5,131.5ZM543.5,132.5C547.057,147.177 549.557,162.177 551,177.5C551.667,282.833 551.667,388.167 551,493.5C549.132,508.184 547.132,522.852 545,537.5C542.451,522.2 540.118,506.865 538,491.5C537.333,385.834 537.333,280.166 538,174.5C539.946,160.515 541.78,146.515 543.5,132.5ZM587.5,130.5C588.693,130.97 589.36,131.97 589.5,133.5C592.402,148.385 594.571,163.403 596,178.5C596.667,282.167 596.667,385.833 596,489.5C594.628,504.604 592.458,519.625 589.5,534.5L583,495.5C582.333,387.834 582.333,280.166 583,172.5C585.739,158.661 587.245,144.606 587.5,130.5ZM722.5,132.5C726.274,147.146 728.774,162.146 730,177.5C730.667,284.167 730.667,390.833 730,497.5C728.263,511.536 726.263,525.539 724,539.5C720.864,523.963 718.527,508.276 717,492.5C716.333,387.5 716.333,282.5 717,177.5C719.27,162.557 721.104,147.55 722.5,132.5ZM363.5,134.5C367.057,148.504 369.557,162.837 371,177.5C371.667,283.167 371.667,388.833 371,494.5C369.13,507.52 367.13,520.52 365,533.5C362.506,519.193 360.173,504.859 358,490.5C357.333,386.168 357.333,281.832 358,177.5C360.269,163.226 362.103,148.886 363.5,134.5ZM453.5,133.5C457.058,147.507 459.558,161.84 461,176.5C461.667,280.5 461.667,384.5 461,488.5C459.101,503.896 456.766,519.236 454,534.5C451.449,518.532 449.116,502.531 447,486.5C446.333,383.168 446.333,279.832 447,176.5C449.009,162.143 451.176,147.809 453.5,133.5ZM767.5,134.5C769.075,138.93 770.242,143.597 771,148.5C772.268,158.842 773.601,169.175 775,179.5C775.667,284.167 775.667,388.833 775,493.5C773.299,508.538 771.299,523.541 769,538.5C765.514,524.717 763.172,510.669 762,496.5C761.333,390.5 761.333,284.5 762,178.5C763.944,163.847 765.777,149.18 767.5,134.5ZM901.5,134.5C902.222,134.918 902.722,135.584 903,136.5C905.483,150.092 907.485,163.767 909,177.5C909.667,283.833 909.667,390.167 909,496.5C907.05,510.2 904.883,523.869 902.5,537.5C900.009,524.221 897.841,510.884 896,497.5C895.333,390.5 895.333,283.5 896,176.5C898.03,162.526 899.864,148.525 901.5,134.5ZM811.5,134.5C813.401,137.343 814.567,140.676 815,144.5C816.864,156.806 818.531,169.141 820,181.5C820.667,284.833 820.667,388.167 820,491.5C818.522,506.26 816.353,520.943 813.5,535.5C811.225,522.852 809.058,510.185 807,497.5C806.333,390.834 806.333,284.166 807,177.5C807.678,168.415 809.015,159.391 811,150.5C811.499,145.177 811.666,139.844 811.5,134.5ZM856.5,133.5C857.117,133.611 857.617,133.944 858,134.5C860.908,149.365 862.911,164.393 864,179.5C864.667,284.167 864.667,388.833 864,493.5L858,539.5C855.674,524.873 853.34,510.206 851,495.5C850.333,389.5 850.333,283.5 851,177.5C853.161,162.876 854.994,148.206 856.5,133.5ZM318.5,135.5C322.398,150.132 325.232,165.132 327,180.5C327.667,283.833 327.667,387.167 327,490.5C325.158,505.241 322.824,519.916 320,534.5C317.48,520.866 315.147,507.198 313,493.5C312.333,389.168 312.333,284.832 313,180.5C314.881,165.506 316.714,150.506 318.5,135.5ZM946.5,134.5C947.117,134.611 947.617,134.944 948,135.5C951.199,151.362 953.536,167.385 955,183.5C955.667,286.5 955.667,389.5 955,492.5C953.51,506.958 951.173,521.316 948,535.5C944.724,519.127 942.221,502.609 940.5,486C941.328,383.169 941.828,280.335 942,177.5C942.397,168.715 943.739,159.998 946,151.5C946.499,145.843 946.666,140.176 946.5,134.5ZM991.5,135.5C995.165,148.474 997.665,161.808 999,175.5C999.667,282.5 999.667,389.5 999,496.5C997.593,510.247 995.591,523.926 993,537.5L987,495.5C986.333,390.834 986.333,286.166 987,181.5C987.772,172.095 989.108,162.745 991,153.5C991.499,147.509 991.666,141.509 991.5,135.5ZM1036.5,137.5C1040.06,150.837 1042.56,164.503 1044,178.5C1044.67,283.833 1044.67,389.167 1044,494.5C1042.52,509.233 1040.52,523.909 1038,538.5C1035.02,522.601 1032.68,506.588 1031,490.5C1030.33,387.833 1030.33,285.167 1031,182.5C1033.27,167.557 1035.11,152.55 1036.5,137.5ZM1081.5,138.5C1085.27,153.148 1087.77,168.148 1089,183.5C1089.67,287.833 1089.67,392.167 1089,496.5C1086.66,510.534 1084.33,524.534 1082,538.5C1079.78,522.151 1077.44,505.817 1075,489.5C1074.33,388.167 1074.33,286.833 1075,185.5C1077.01,169.812 1079.18,154.145 1081.5,138.5ZM273.5,139.5C275.401,142.343 276.567,145.676 277,149.5C278.994,160.783 280.661,172.121 282,183.5C282.667,286.167 282.667,388.833 282,491.5C279.912,506.537 277.578,521.539 275,536.5C272.997,523.155 270.997,509.822 269,496.5C268.333,391.168 268.333,285.832 269,180.5C269.397,171.715 270.738,162.998 273,154.5C273.499,149.511 273.666,144.511 273.5,139.5ZM184.5,140.5C188.07,155.201 190.57,170.201 192,185.5C192.667,286.833 192.667,388.167 192,489.5C189.45,504.8 187.116,520.134 185,535.5C182.234,520.236 179.9,504.896 178,489.5C177.333,388.5 177.333,287.5 178,186.5C179.624,171.095 181.792,155.752 184.5,140.5ZM229.5,140.5C233.058,155.179 235.558,170.179 237,185.5C237.667,287.167 237.667,388.833 237,490.5C234.992,505.549 232.658,520.552 230,535.5C227.783,522.2 225.782,508.865 224,495.5C223.333,391.5 223.333,287.5 224,183.5C225.618,169.14 227.452,154.805 229.5,140.5ZM1125.5,140.5C1127.12,141.589 1127.95,143.256 1128,145.5C1130.76,159.045 1132.76,172.733 1134,186.5C1134.67,288.5 1134.67,390.5 1134,492.5C1131.88,507.865 1129.55,523.2 1127,538.5C1124.02,522.601 1121.69,506.588 1120,490.5C1119.33,388.833 1119.33,287.167 1120,185.5C1122.27,170.557 1124.11,155.55 1125.5,140.5ZM1170.5,143.5C1172.07,144.681 1172.9,146.347 1173,148.5C1175.39,161.437 1177.39,174.443 1179,187.5C1179.67,289.167 1179.67,390.833 1179,492.5C1176.93,507.539 1174.59,522.541 1172,537.5C1169.03,522.942 1166.69,508.262 1165,493.5C1164.33,390.833 1164.33,288.167 1165,185.5C1166.95,171.494 1168.78,157.494 1170.5,143.5ZM1215.5,143.5C1219.38,157.113 1221.88,171.113 1223,185.5C1223.67,290.5 1223.67,395.5 1223,500.5C1220.68,512.779 1218.68,525.117 1217,537.5C1213.22,523.78 1210.88,509.704 1210,495.5C1209.33,393.167 1209.33,290.833 1210,188.5C1211.84,173.487 1213.67,158.487 1215.5,143.5ZM408.5,133.5C412.274,148.146 414.774,163.146 416,178.5C416.667,282.5 416.667,386.5 416,490.5C413.991,505.549 411.657,520.552 409,535.5L401.5,484C402.328,381.169 402.828,278.335 403,175.5C404.838,161.488 406.671,147.488 408.5,133.5Z" style="fill:rgb(222,43,154);"/>
    </g>
    <g transform="matrix(0.37017,0,0,0.37017,-13.158,112.064)">
        <path d="M677.5,535.5L679.5,536.5C678.754,541.479 678.088,541.146 677.5,535.5ZM1065.5,577.5C822.5,576.167 579.5,576.167 336.5,577.5C335.711,577.217 335.044,576.717 334.5,576C578.833,575.333 823.167,575.333 1067.5,576C1066.96,576.717 1066.29,577.217 1065.5,577.5ZM1022.5,664.5L379.5,664.5C379.823,671.022 379.49,677.355 378.5,683.5L378.5,663.5C593.334,663.167 808.001,663.5 1022.5,664.5ZM363.5,739.5C588.5,740.833 813.5,740.833 1038.5,739.5C1039.04,739.56 1039.38,739.893 1039.5,740.5C813.835,741.833 588.165,741.833 362.5,740.5C362.624,739.893 362.957,739.56 363.5,739.5Z" style="fill:rgb(222,43,154);"/>
    </g>
</svg>
